icons/circle-chevron-right-outline.svg

<svg xmlns="http://www.w3.org/2000/svg" width="24" height="24" viewBox="0 0 24 24">
  <path d="M12,1 C18.0751322,1 23,5.92486775 23,12 C23,18.0751322 18.0751322,23 12,23 C5.92486775,23 1,18.0751322 1,12 C1,5.92486775 5.92486775,1 12,1 Z M12,3 C7.02943725,3 3,7.02943725 3,12 C3,16.9705627 7.02943725,21 12,21 C16.9705627,21 21,16.9705627 21,12 C21,7.02943725 16.9705627,3 12,3 Z M9.29289322,7.29289322 C9.68341751,6.90236893 10.3165825,6.90236893 10.7071068,7.29289322 L10.7071068,7.29289322 L14.7071068,11.2928932 L14.7902954,11.3871006 C15.0953203,11.7793918 15.0675907,12.3466228 14.7071068,12.7071068 L14.7071068,12.7071068 L10.7071068,16.7071068 L10.6128994,16.7902954 C10.2206082,17.0953203 9.65337718,17.0675907 9.29289322,16.7071068 L9.29289322,16.7071068 L9.20970461,16.6128994 C8.90467972,16.2206082 8.93240926,15.6533772 9.29289322,15.2928932 L9.29289322,15.2928932 L12.585,12 L9.29289322,8.70710678 L9.20970461,8.61289944 C8.90467972,8.22060824 8.93240926,7.65337718 9.29289322,7.29289322 Z"/>
</svg>

<svg xmlns="http://www.w3.org/2000/svg" viewBox="0 0 24 24">
  <path d="M12 1a11 11 0 1 1 0 22 11 11 0 0 1 0-22zm0 2a9 9 0 1 0 0 18 9 9 0 0 0 0-18zM9.3 7.3a1 1 0 0 1 1.4 0l4 4 .09.09a1 1 0 0 1-.08 1.32l-4 4-.1.08a1 1 0 0 1-1.32-.08l-.08-.1a1 1 0 0 1 .08-1.32L12.6 12 9.3 8.7l-.08-.09a1 1 0 0 1 .08-1.32z"/>
</svg>
